svg/filled/share.svg

<svg width="24" height="24" viewBox="0 0 24 24" fill="none" xmlns="http://www.w3.org/2000/svg">
<path d="M20.3359 3.22136L3.87333 8.70889C3.56801 8.81066 3.55033 9.23586 3.84614 9.36263L9.89655 11.9557C9.96078 11.9832 10.0347 11.9752 10.0916 11.9346L16.0235 7.69749C16.2073 7.56618 16.4338 7.79266 16.3025 7.97648L12.0654 13.9084C12.0248 13.9653 12.0168 14.0392 12.0443 14.1034L14.6374 20.1539C14.7641 20.4497 15.1893 20.432 15.2911 20.1267L20.7786 3.66408C20.8698 3.39046 20.6095 3.13015 20.3359 3.22136Z" fill="black"/>
</svg>

<svg xmlns="http://www.w3.org/2000/svg" viewBox="0 0 24 24" fill="currentColor">
  <path d="M20.336 3.221L3.873 8.71a.35.35 0 00-.027.654l6.05 2.593a.2.2 0 00.196-.021l5.931-4.238c.184-.13.41.096.28.28l-4.238 5.931a.2.2 0 00-.02.195l2.592 6.05a.35.35 0 00.654-.026L20.78 3.664a.35.35 0 00-.443-.443z"/>
</svg>
